frontend/public/svg/files/file-png.svg

<svg width="143" height="174" viewBox="0 0 143 174" fill="none" xmlns="http://www.w3.org/2000/svg">
<g clip-path="url(#clip0)">
<path d="M141.819 92.6639C141.999 108.944 142.242 125.224 142.324 141.505C142.354 147.45 141.902 153.396 141.852 159.343C141.779 167.726 135.182 172.736 127.633 172.886C112.368 173.189 97.0973 173.565 81.8316 173.486C63.4161 173.39 45.0012 172.922 26.5903 172.453C22.3299 172.244 18.0851 171.788 13.8776 171.087C8.90257 170.378 3.91248 164.578 3.55806 159.179C3.28699 155.04 3.08554 150.892 3.02975 146.745C2.73003 124.174 2.46017 101.603 2.22039 79.0305C1.99067 59.154 1.76291 39.2778 1.53713 19.4013C1.53175 15.458 2.48667 11.5728 4.31936 8.08133C6.37304 3.99497 9.72758 1.92394 14.2865 1.77626C20.2336 1.58461 26.1885 1.53139 32.1258 1.17697C51.8881 -0.00443968 71.6465 0.44187 91.4082 1.09492C94.2121 1.18812 97.0199 1.31741 99.8224 1.25965C101.751 1.23762 103.61 1.98095 104.991 3.32737C114.227 11.5276 123.458 19.7333 132.683 27.9445C134.025 29.1384 135.29 30.4301 136.707 31.5268C139.665 33.8175 140.453 36.9477 140.509 40.4611C140.729 54.2711 140.994 68.0808 141.213 81.8908C141.27 85.4823 141.222 89.0744 141.222 92.6672L141.819 92.6639ZM94.5008 9.3921C92.4117 9.23327 90.7407 9.0197 89.0677 8.99344C74.8114 8.76458 60.5548 8.55665 46.2974 8.36848C40.0158 8.28316 33.7333 8.22048 27.45 8.1807C24.2011 8.15839 20.9432 8.05639 17.7041 8.24607C13.2528 8.50336 11.8936 9.84524 11.0909 14.3569C10.3488 18.3329 10.1465 22.3909 10.4897 26.421C10.7876 29.6567 10.9491 32.9185 10.9537 36.1667C11.0246 75.2349 11.0731 114.303 11.0994 153.373C11.0864 154.046 11.1116 154.719 11.1749 155.39C11.7656 160.542 14.4768 164.113 20.5039 164.346C41.9452 165.175 63.3839 165.187 84.8304 164.841C95.9441 164.661 107.059 164.557 118.172 164.428C120.863 164.396 123.561 164.501 126.245 164.363C130.861 164.13 133.154 161.746 133.109 157.067C133.023 148.093 132.809 139.121 132.631 130.149C132.542 125.659 132.451 121.169 132.303 116.681C131.928 105.576 131.342 94.4754 131.169 83.3682C130.982 71.3572 131.172 59.3458 131.182 47.3302C131.182 46.477 131.05 45.6294 131.002 45.0151C127.253 45.0151 123.787 45.0018 120.321 45.0189C116.728 45.036 113.134 45.1676 109.543 45.0843C107.414 45.0731 105.29 44.8427 103.208 44.3966C98.811 43.3655 97.4511 41.7056 96.9995 37.2044C96.6057 33.2979 96.3471 29.3783 95.996 25.4679C95.5247 20.2336 95.0239 15.0012 94.5008 9.3921ZM126.762 35.7296L103.835 14.9075L103.313 15.2523C104.407 22.4176 105.5 29.5825 106.624 36.9519L126.762 35.7296Z" fill="black"/>
<path d="M59.3807 111.178C59.592 119.534 59.8196 127.266 59.9607 134.999C60.0722 137.017 59.9401 139.041 59.567 141.027C59.2152 142.412 58.4298 143.649 57.3256 144.557C55.7957 145.752 53.2845 144.916 52.5343 143.033C51.8886 141.489 51.5429 139.835 51.5156 138.162C51.6141 127.385 51.8564 116.61 52.0448 105.834C52.0677 104.508 52.0448 103.18 52.0448 102.112C55.0088 100.143 57.2527 100.012 59.7487 102.116C62.3674 104.224 64.7252 106.637 66.7716 109.305C70.5324 114.471 73.887 119.933 77.4043 125.276C77.9392 126.088 78.4465 126.917 79.3805 128.394C79.5393 126.75 79.6713 125.819 79.7133 124.883C79.9679 119.162 80.1018 113.434 80.4956 107.723C80.6893 105.493 81.1585 103.295 81.8936 101.181C82.5434 99.2153 83.9854 98.3588 85.3611 98.5655C86.8811 98.7952 87.8781 100.175 88.0186 102.382C88.0632 103.392 88.0501 104.404 87.9799 105.412C87.5454 114.047 87.1266 122.681 86.639 131.312C86.5077 133.663 86.1795 136.003 85.8894 138.343C85.7975 138.896 85.6236 139.432 85.3735 139.934C83.8922 143.198 80.5219 143.648 78.5004 140.705C76.3417 137.562 74.4731 134.223 72.4253 131.003C68.5746 124.942 64.6994 118.896 60.7989 112.864C60.3557 112.278 59.8824 111.715 59.3807 111.178Z" fill="black"/>
<path d="M109.632 132.794C110.288 131.739 110.713 130.556 110.877 129.325C111.042 128.093 110.942 126.841 110.586 125.65C109.908 125.29 109.208 124.96 108.551 124.562C106.853 123.536 106.028 121.974 106.408 120.388C106.547 119.545 106.964 118.772 107.592 118.191C108.22 117.611 109.024 117.257 109.876 117.185C112.776 116.881 115.691 116.612 118.605 116.562C121.18 116.519 122.796 117.818 123.108 119.756C123.444 121.843 122.546 123.099 119.943 124.193C119.532 124.366 119.127 124.555 118.74 124.728C118.6 127.101 118.62 129.449 118.295 131.751C117.453 137.712 113.364 141.481 107.014 140.414C104.806 140.043 102.531 139.91 100.396 139.292C93.7706 137.375 90.4686 132.473 91.0809 125.605C91.8029 117.516 94.1257 109.991 99.3016 103.557C102.112 100.064 105.711 98.3476 110.251 99.0453C111.248 99.1963 112.222 99.4805 113.144 99.8907C113.735 100.101 114.235 100.512 114.555 101.05C114.876 101.59 114.998 102.224 114.901 102.844C114.836 103.467 114.55 104.047 114.094 104.476C113.639 104.906 113.043 105.157 112.418 105.185C111.751 105.285 111.075 105.307 110.403 105.25C107.869 105.017 106.093 106.169 104.779 108.217C101.103 113.946 99.4689 120.271 99.2655 127.02C99.1782 127.987 99.4492 128.953 100.028 129.733C100.606 130.513 101.451 131.053 102.402 131.25C104.741 131.907 107.162 132.28 109.632 132.794Z" fill="black"/>
<path d="M32.0807 128.175C32.0807 130.805 32.1462 133.264 32.0589 135.718C32.0175 137.398 31.845 139.073 31.5431 140.727C31.0837 143.123 29.8367 144.235 28.0842 144.104C26.3003 143.973 25.2344 142.646 25.1025 140.292C24.9948 138.387 24.9266 136.48 24.8977 134.571C24.7874 126.493 24.6352 118.416 24.626 110.338C24.6194 105.415 28.1367 102.717 31.8313 100.704C35.6774 98.6068 39.5104 99.9405 42.752 102.618C48.2895 107.194 49.2216 113.765 45.3052 119.755C42.2014 124.503 38.3849 126.989 32.0807 128.175ZM31.7295 122.111C35.2011 121.279 38.232 119.17 40.2186 116.204C42.7842 112.409 41.9035 108.305 38.0232 105.829C35.2253 104.044 33.0921 104.386 30.6768 107.03C31.0154 111.882 31.3548 116.773 31.7295 122.112V122.111Z" fill="black"/>
</g>
<defs>
<clipPath id="clip0">
<rect width="141.769" height="173.273" fill="white" transform="translate(0.900635 0.230469)"/>
</clipPath>
</defs>
</svg>

<svg xmlns="http://www.w3.org/2000/svg" width="143" height="174" fill="none" viewBox="0 0 143 174"><g fill="#000" clip-path="url(#a)"><path d="M141.819 92.664c.18 16.28.423 32.56.505 48.841.03 5.945-.422 11.891-.472 17.838-.073 8.383-6.67 13.393-14.219 13.543-15.265.303-30.536.679-45.801.6-18.416-.096-36.83-.564-55.242-1.033-4.26-.209-8.505-.665-12.712-1.366-4.975-.709-9.966-6.509-10.32-11.908-.271-4.139-.472-8.287-.528-12.434q-.45-33.856-.81-67.714-.344-29.815-.683-59.63A24.3 24.3 0 0 1 4.32 8.081c2.054-4.086 5.409-6.157 9.968-6.305 5.947-.191 11.902-.245 17.839-.599 19.762-1.181 39.52-.735 59.282-.082 2.804.093 5.612.222 8.414.165a7.3 7.3 0 0 1 5.169 2.067q13.854 12.3 27.692 24.618c1.342 1.193 2.607 2.485 4.024 3.582 2.958 2.29 3.746 5.42 3.802 8.934.22 13.81.485 27.62.704 41.43.057 3.591.009 7.183.009 10.776zM94.501 9.392c-2.09-.159-3.76-.372-5.433-.399a14985 14985 0 0 0-42.77-.625 2600 2600 0 0 0-18.848-.187c-3.249-.023-6.507-.125-9.746.065-4.451.257-5.81 1.6-6.613 6.11a45 45 0 0 0-.601 12.065c.298 3.236.46 6.498.464 9.746q.106 58.602.145 117.206-.019 1.01.076 2.017c.59 5.152 3.302 8.723 9.329 8.956 21.441.829 42.88.841 64.326.495 11.114-.18 22.229-.284 33.342-.413 2.691-.032 5.389.073 8.073-.065 4.616-.233 6.909-2.617 6.864-7.296-.086-8.974-.3-17.946-.478-26.918-.089-4.49-.18-8.98-.328-13.468-.375-11.105-.961-22.206-1.134-33.313-.187-12.01.003-24.022.013-36.038 0-.853-.132-1.7-.18-2.315-3.749 0-7.215-.013-10.681.004-3.593.017-7.187.149-10.778.065a31 31 0 0 1-6.335-.687c-4.397-1.032-5.757-2.691-6.209-7.193-.393-3.906-.652-7.826-1.003-11.736-.471-5.234-.972-10.467-1.495-16.076m32.261 26.338-22.927-20.822-.522.344 3.311 21.7z"/><path d="M59.38 111.178c.212 8.356.44 16.088.58 23.821a25 25 0 0 1-.393 6.028 6.7 6.7 0 0 1-2.241 3.53c-1.53 1.195-4.041.359-4.792-1.524a13.2 13.2 0 0 1-1.018-4.871c.098-10.777.34-21.552.529-32.328.023-1.326 0-2.654 0-3.722 2.964-1.969 5.208-2.1 7.704.004a42.2 42.2 0 0 1 7.023 7.189c3.76 5.166 7.115 10.628 10.632 15.971.535.812 1.043 1.641 1.977 3.118.158-1.644.29-2.575.332-3.511.255-5.721.389-11.449.783-17.16.193-2.23.663-4.428 1.398-6.542.65-1.966 2.091-2.822 3.467-2.615 1.52.23 2.517 1.609 2.658 3.816a27 27 0 0 1-.04 3.03c-.434 8.635-.852 17.269-1.34 25.9-.131 2.351-.46 4.691-.75 7.031a5.6 5.6 0 0 1-.515 1.591c-1.482 3.264-4.852 3.714-6.874.771-2.158-3.143-4.027-6.482-6.075-9.702A2688 2688 0 0 0 60.8 112.864a21 21 0 0 0-1.418-1.686m50.25 21.616a8.76 8.76 0 0 0 .954-7.144c-.678-.36-1.378-.69-2.035-1.088-1.698-1.026-2.523-2.588-2.143-4.174a3.85 3.85 0 0 1 3.468-3.203c2.9-.304 5.815-.573 8.729-.623 2.575-.043 4.191 1.256 4.503 3.194.336 2.087-.562 3.343-3.165 4.437-.411.173-.816.362-1.203.535-.14 2.373-.12 4.721-.445 7.023-.842 5.961-4.931 9.73-11.281 8.663-2.208-.371-4.483-.504-6.618-1.122-6.625-1.917-9.927-6.819-9.315-13.687.722-8.089 3.045-15.614 8.22-22.048 2.811-3.493 6.41-5.21 10.95-4.512.997.151 1.971.436 2.893.846a2.694 2.694 0 0 1 1.757 2.953 2.61 2.61 0 0 1-2.483 2.341c-.667.1-1.343.122-2.015.065-2.534-.233-4.31.919-5.624 2.967-3.676 5.729-5.31 12.054-5.513 18.803a3.956 3.956 0 0 0 3.136 4.23c2.339.657 4.76 1.03 7.23 1.544m-77.552-4.619c0 2.63.066 5.089-.021 7.543a32 32 0 0 1-.516 5.009c-.46 2.396-1.706 3.508-3.459 3.377-1.784-.131-2.85-1.458-2.982-3.812a139 139 0 0 1-.204-5.721c-.11-8.078-.263-16.155-.272-24.233-.007-4.923 3.51-7.621 7.205-9.634 3.846-2.097 7.68-.763 10.921 1.914 5.537 4.576 6.47 11.147 2.553 17.137-3.104 4.748-6.92 7.234-13.224 8.42m-.35-6.064a14.2 14.2 0 0 0 8.489-5.907c2.565-3.795 1.685-7.899-2.196-10.375-2.798-1.785-4.93-1.443-7.346 1.201.338 4.852.678 9.743 1.053 15.082z"/></g><defs><clipPath id="a"><path fill="#fff" d="M.9.23h141.77v173.273H.9z"/></clipPath></defs></svg>
